X: 1197
T: Kalenin Burcu muyam
C: (Anonim)
O: Turkey
F: http://compmusic.upf.edu/node/140
N: ussak--turku--sofyan--kalenin_burcu_muyam--
N: makam= ussak
N: form= turku
N: usul= sofyan = 4/4
M: 4/4
L: 1/16
K: C _2/4B   
Q: 1/4=90
%%MIDI tuningsystem comma53
G2cB A2cB A2cB A3G  | Bcd2 d2d2 c4 B4  | \
w:  ARANAĞME  |   | 
Bcd2 d2d2 c2c2 B4  | 
w:   | 
A2cB dB2A A8  | G2cB A2cB A2cB A3G  | \
w:   |  ARANAĞME  | 
Bcd2 d2d2 c4 B4  | 
w:   | 
Bcd2 d2d2 c2c2 B4  | A2cB dB2A A8  | \
w:   |   | 
G2cB A2cB A2cB A4  | 
w:  Ka le *  nin  bur *  cu  mu *  yam    | 
Bcd2 d2d2 c4 BAB2  | d2d2 d2d2 c2c2 BAB2  | \
w:  Ben  *  bil mem  ay rı yam    |  Dil  bil mez  Gür cü  mü yem    | 
A2cB dB2A A4 A4  | 
w:  El le *  ri  kı *  na lı    | 
G2cB A2cB A2cB A4  | Bcd2 d2d2 c4 BAB2  | \
w:  Fe lek  *  e vin  *  yı kı *  la    |  Ben  *  bil mem  ay rı yam    | 
d2d2 d2d2 c2c2 BAB2  | 
w:  Ben  çir kin  har cı  mı yam    | 
A2cB dB2A A4 A4  | G2cB A2cB A2cB A4  | \
w:  El le *  ri  kı *  na lı    |  Vay  sür *  me li  *  sür me *  li    | 
Bcd2 d2d2 c4 BAB2  | 
w:  Ben  *  bil mem  ay rı yam    | 
cd3 d2d2 c2c2 B4  | A2cB dB2A A4 A4  | \
w:  Se ver ken  sev dir me li    |  El le *  ri  kı *  na lı    | 
G2cB A2cB A2cB A4  | 
w:  Vay  sür *  me li  *  sür me *  li    | 
Bcd2 d2d2 c4 BAB2  | cd3 d2d2 c2c2 B4  | \
w:  Ben  *  bil mem  ay rı yam    |  Se ver ken  sev dir me li    | 
A2cB dB2A A4 A4  | 
w:  El le *  ri  kı *  na lı    | 
G2cB A2cB A2cB A3G  | Bcd2 d2d2 c4 B4  | \
w:  ARANAĞME  |   | 
Bcd2 d2d2 c2c2 B4  | 
w:   | 
A2cB dB2A A8  | G2cB A2cB A2cB A3G  | \
w:   |  ARANAĞME  | 
Bcd2 d2d2 c4 B4  | 
w:   | 
Bcd2 d2d2 c2c2 B4  | A2cB dB2A A8  | \
w:   |   | 
G2cB A2cB A2cB A4  | 
w:  Ka le *  nin  bur *  cu  mu *  yam    | 
Bcd2 d2d2 c4 BAB2  | d2d2 d2d2 c2c2 BAB2  | \
w:  Ben  *  bil mem  ay rı yam    |  Dil  bil mez  Gür cü  mü yem    | 
A2cB dB2A A4 A4  | 
w:  El le *  ri  kı *  na lı    | 
G2cB A2cB A2cB A4  | Bcd2 d2d2 c4 BAB2  | \
w:  Fe lek  *  e vin  *  yı kı *  la    |  Ben  *  bil mem  ay rı yam    | 
d2d2 d2d2 c2c2 BAB2  | 
w:  Ben  çir kin  har cı  mı yam    | 
A2cB dB2A A4 A4  | G2cB A2cB A2cB A4  | \
w:  El le *  ri  kı *  na lı    |  Vay  sür *  me li  *  sür me *  li    | 
Bcd2 d2d2 c4 BAB2  | 
w:  Ben  *  bil mem  ay rı yam    | 
cd3 d2d2 c2c2 B4  | A2cB dB2A A4 A4  | \
w:  Se ver ken  sev dir me li    |  El le *  ri  kı *  na lı    | 
G2cB A2cB A2cB A4  | 
w:  Vay  sür *  me li  *  sür me *  li    | 
Bcd2 d2d2 c4 BAB2  | cd3 d2d2 c2c2 B4  | \
w:  Ben  *  bil mem  ay rı yam    |  Se ver ken  sev dir me li    | 
A2cB dB2A A4 A4  | 
w:  El le *  ri  kı *  na lı    | 
|


